images/adex.svg

<svg height="250" viewBox="0 0 250 250" width="250" xmlns="http://www.w3.org/2000/svg"><path d="m78.222656 201.589844 48.128906-48.125 48.125 48.125 28.613282-28.617188-48.125-48.121094 48.125-48.125-28.613282-28.617187-48.125 48.125-48.128906-48.125-28.613281 28.617187 48.125 48.125-48.125 48.121094zm0 0" fill="#1b75bc"/><g fill="#3c3c3b"><path d="m109.640625 16.710938-28.105469 28.105468 23.675782 23.675782 21.140624-21.394532 21.136719 21.394532 23.679688-23.675782-44.816407-44.816406z"/><path d="m109.640625 233.289062-28.105469-28.105468 23.675782-23.675782 21.140624 21.390626 21.136719-21.390626 23.679688 23.675782-44.816407 44.816406z"/></g></svg>

<svg xmlns="http://www.w3.org/2000/svg" xmlns:xlink="http://www.w3.org/1999/xlink" width="250px" height="250px" viewBox="0 0 250 250" version="1.1">
<g id="surface1">
<path style=" stroke:none;fill-rule:nonzero;fill:rgb(10.588235%,45.882353%,73.725492%);fill-opacity:1;" d="M 78.222656 201.589844 L 126.351562 153.464844 L 174.476562 201.589844 L 203.089844 172.972656 L 154.964844 124.851562 L 203.089844 76.726562 L 174.476562 48.109375 L 126.351562 96.234375 L 78.222656 48.109375 L 49.609375 76.726562 L 97.734375 124.851562 L 49.609375 172.972656 Z M 78.222656 201.589844 "/>
<path style=" stroke:none;fill-rule:nonzero;fill:rgb(23.529412%,23.529412%,23.137255%);fill-opacity:1;" d="M 109.640625 16.710938 L 81.535156 44.816406 L 105.210938 68.492188 L 126.351562 47.097656 L 147.488281 68.492188 L 171.167969 44.816406 L 126.351562 0 L 109.640625 16.710938 "/>
<path style=" stroke:none;fill-rule:nonzero;fill:rgb(23.529412%,23.529412%,23.137255%);fill-opacity:1;" d="M 109.640625 233.289062 L 81.535156 205.183594 L 105.210938 181.507812 L 126.351562 202.898438 L 147.488281 181.507812 L 171.167969 205.183594 L 126.351562 250 L 109.640625 233.289062 "/>
</g>
</svg>
